X: 20958
T: Jubilant Goat, The
R: polka
M: 2/4
K: Amajor
AE/F/ AB|ce ea|fa/f/ ec|BA B2|
AE/F/ AB|ce ea|fa/f/ ec|Bc A2:|
fa/f/ ec|BA B2|AE/F/ AB|ce B2|
af ec|BA B2|AE/F/ AB|cA A2|
fa/f/ ec|BA B2|AE/F/ AB|ce B2|
AE/F/ AB|ce ea|fa/f/ ec|Bc A2|

